!!!!SEGMENT: pl-sa--549-a-ix-29--003_anonim--mazur.krn
!!!cenid: 18xx:459
!!!COM: Anonim
!!!COM-rismID: pe30004985
!!!CDT:
!!!CNT:
!!!OTL: Mazur
!!!PDT:
!!!AGN: Secular; Mazurka
!!!SMS-siglum: PL-SA
!!!SMS-shelfmark: 549/A IX 29
!!!SMS-shelfwork: 003 W
!!!SMS-variant:
!!!SMS-altvar:
!!!NIFC-rismSourceID: 1001068289
!!!NIFC-islandoraID:
!!!URL-pdf-islandora:
!!!URL-scan: https://bc.bdsandomierz.pl/dlibra/publication/1441/edition/1409/content @EN{Scan on Cyfrowa Biblioteka Diecezjalna w Sandomierzu} @PL{Skany w portalu Cyfrowa Biblioteka Diecezjalna w Sandomierzu}
!!!ONB-nifc: Str. 4 (s. 5) – str. 5 (s. 1)
!!!AIN: 2 piano
!!!key: D
**kern	**kern
*group1	*group1
*part2	*part1
*staff2	*staff1
*clefF4	*clefG2
*I"[Piano]	*I"[Piano]
*Ipiano	*Ipiano
*ICklav	*ICklav
*k[f#c#]	*k[f#c#]
*D:	*D:
*M3/8	*M3/8
*kcancel	*kcancel
*>[A,A,B,B]	*>[A,A,B,B]
=1	=1
*>A	*>A
.	16qqdd/LL
.	16qqff#/
!	!LO:TX:a:B:t=Mazur
.	16qqaa/JJ
8.DD/	4ddd\
8.F#\ 8.A\ 8.d\	.
.	16ccc#\LL
.	16bb\JJ
=2	=2
*rep	*
8.DD/	16aa\LL
.	16bb\
.	16aa\
8.F#\ 8.A\ 8.d\	16gg\
.	16ff#\
.	16ee\JJ
*Xrep	*
=3	=3
*rep	*
8.DD/	16dd\LL
.	16ee\
.	16ff#\
8.F#\ 8.A\ 8.d\	16gg\
.	16aa\
.	16aa#X\JJ
*Xrep	*
=4	=4
8G\ 8B\ 8d\	8bb\
8G\ 8B\ 8d\	4dd\ 4bb\
16r	.
16r	.
=5	=5
8AA/	8.eee\L
!LO:N:vis=8.	!
4A\ 4c#\ 4e\ 4g\	.
.	16fff#\L
.	16eee\
.	16ddd\JJ
=6	=6
*rep	*
8AA/	16ccc#\LL
.	16bb\
4A\ 4c#\ 4e\ 4g\	16aa\
.	16gg\
.	16ff#\
.	16ee\JJ
*Xrep	*
=7	=7
*rep	*
8AA/	16dd\LL
.	16cc#\
4A\ 4c#\ 4e\ 4g\	16bb\
.	16aa\
.	16gg\
.	16cc#\JJ
*Xrep	*
=8	=8
8B\ 8d\	8dd\
4D\ 4F#\ 4B\ 4d\	4dd\ 4ff#\ 4bb\
=9:|:	=9:|:
*>B	*>B
8D\L 8F#\ 8A\	16f#\LL
.	16a\
8D\ 8G\ 8B\	16g\
.	16a\
8D\J 8G\ 8B\	16b\
.	16cc#\JJ
=10	=10
!LO:N:vis=8.	!
4.D\ 4.F#\ 4.A\	16dd\LL
.	16a\JJ
.	4ff#\
!!LO:TX:t=P:problem:brak kreski taktowej
!!LO:LB:g=original
=11	=11
8D\L 8F#\ 8A\	16f#\LL
.	16a\
8D\ 8G\ 8B\	16g\
.	16a\
8D\J 8G\ 8B\	16b\
.	16cc#\JJ
=12	=12
!LO:N:vis=8.	!
4.D\ 4.F#\ 4.A\	16dd\LL
.	16a\JJ
.	4ff#\
=13	=13
!LO:N:vis=8.	!
4.F#\ 4.A\ 4.d\	8.aa\L
.	16gg\L
.	16ff#\
.	16ee\JJ
=14	=14
*rep	*
4.F#\ 4.A 4.d	16dd\LL
.	16cc#\
.	16b\
.	16a\
.	16g\
.	16f#\JJ
*Xrep	*
=15	=15
!LO:N:vis=8.	!
4.G\ 4.B\ 4.e\	16f#/LL
.	16g/
.	16a/
.	16b/
.	16cc#/
.	16dd/JJ
=16	=16
8B\ 8d\	8dd\
4D\ 4G\ 4d\	4f#/ 4dd
=17||	=17||
*kcancel	*kcancel
*k[f#]	*k[f#]
*G:	*G:
!	!LO:TX:a:i:t=loco
8G\ 8B\ 8d\	8g\ 8b\ 8dd\
4G\ 4B\ 4d\	4g\ 4b\ 4dd\
=18	=18
*rep	*
8G\ 8B 8d	8g\ 8b\
4G\ 4B 4d	4g\ 4b\
*Xrep	*
=19	=19
*	*8va
!LO:N:vis=8.	!
4.G\ 4.B\ 4.e\	4.eee\
=20	=20
4.G\ 4.B\ 4.d\	16ddd\LL
.	32ggg\L
!	!LO:N:vis=32.
.	32aaa\JJJ
!	!LO:N:vis=8
.	4bbb\
*	*X8va
=21	=21
!	!LO:TX:a:i:t=loco
8G\ 8B\ 8d\	8g\ 8b\
4G\ 4B\ 4d\	8g\ 8b\
.	16r
.	16r
=22	=22
*rep	*
8G\ 8B\ 8d\	8g\ 8b\
4G\ 4B\ 4d\	4g\ 4b\
*Xrep	*
=23	=23
*	*8va
8.G\ 8.c\ 8.e\	4eee\
!!LO:PB:g=original
8.G\ 8.B\ 8.d\	.
.	16ddd\LL
.	32ggg\L
.	32aaa\JJJ
*	*X8va
=24	=24
!LO:N:vis=8.	!LO:TX:a:i:t=loco
4.D\ 4.F#\ 4.A\ 4.c\	16ccc\LL
.	16gg\
.	16aa\
.	16bb\
.	16ccc\
.	16ccc#X\JJ
=25	=25
4.D\ 4.G\ 4.B\	16eee\LL
.	16ddd\JJ
.	4gg\
=26	=26
!LO:N:vis=8.	!
4.D\ 4.F#\ 4.A\ 4.c\	16bb\LL
.	16aa\
.	16gg\
.	16dd\
.	16ee\
.	16ff#\JJ
=27	=27
.	8qaa/
!LO:N:vis=8.	!
4.D\ 4.G\ 4.B\	16gg\LL
.	16ff#\
.	16gg\
.	16aa\J
.	8bb\J
=28	=28
!LO:N:vis=8.	!
4.D\ 4.F#\ 4.A\ 4.c\	16ccc\LL
.	16gg\
.	16aa\
.	16bb\
.	16ccc\
.	16ccc#X\JJ
=29	=29
4.D\ 4.G\ 4.B\	16eee\LL
.	16ddd\JJ
.	4gg\
=30	=30
!LO:N:vis=8.	!
4.D\ 4.F#\ 4.A\ 4.c\	16bb\LL
.	16aa\
.	16gg\
.	16dd\
.	16ee\
.	16ff#\JJ
=31	=31
8D\ 8G\ 8B\	16aa\LL
.	16gg\JJ
!	!LO:TX:b:i:t=Mazur Da Capo
4GG/ 4D/ 4G/	4b\ 4gg\
=:|!	=:|!
*-	*-
!!!system-decoration: [{g1}]
!!!RDF**kern: > = above
!!!RDF**kern: < = below
!!!ENC: Mateusz Solarz
!!!END: 2020-06-17
!!!EED: Jędrzej Mróz
!!!EEV: 2022-01-04
